X:186
T: Xi huanggua
N: C1678
O: China, Jiangxi, Lean
S: IV, 234]
R: Shange]
M: 2/4
L: 1/16
K: C
A2ded2A2 | e2cdc2A2 | c8- | c6A2
A2cdc2A2 | c2Aee2c2 | A8- | A6GE
c2AcG2GE | e2c2A2Ac | d2dcd2e2- | e6cA
e2c2A2Ac | d2dcc2A2- | A8

